X:5685
T:Roy and Angie's Wedding
O:england
M:6/8
L:1/8
C:Stephen McNally
K:D
|:f>dA F>Ad|G>GG d>Gg|f>dA F>Ad|e>ee e>fg|
f>dA F>Ad|G>GG d>Gg|f>ed c>BA|F>Ae d>dd:|
|:f>da f>da|g>gg g>fe|f>da (4fedc|e>ee e>fg|
f>da f>da|g>gg g>fe|f>ed c>BA|F>Ae d>dd:|


